X: 19594
T: Jamie Hardie
R: reel
M: 4/4
K: Dmajor
A,2|D/D/D FA d2 AF|D/D/D FD EB,B,E|D/D/D FA dBAG|
FDGE FDDA,|D/D/D FA d2 AF|D/D/D FD EB,B,E|
D/D/D FA dfag|fdec dDD||g|fdge afdf|
ecdB cAAg|fdge fgaA|Bcde fddg|
fdge afdf|ecdB cAAg|fdec dDFA|Bdca fd z2|[d6F6]||

